storage/app/icons/phosphoricons/bold/terminal-window-bold.svg

<svg xmlns="http://www.w3.org/2000/svg" fill="currentColor" viewBox="0 0 256 256"><path d="M72.5 150.63 100.79 128 72.5 105.37a12 12 0 1 1 15-18.74l40 32a12 12 0 0 1 0 18.74l-40 32a12 12 0 0 1-15-18.74M144 172h32a12 12 0 0 0 0-24h-32a12 12 0 0 0 0 24m92-116v144a20 20 0 0 1-20 20H40a20 20 0 0 1-20-20V56a20 20 0 0 1 20-20h176a20 20 0 0 1 20 20m-24 4H44v136h168Z"/></svg>

<svg xmlns="http://www.w3.org/2000/svg" viewBox="0 0 256 256" fill="currentColor"><path d="M72.5,150.63,100.79,128,72.5,105.37a12,12,0,1,1,15-18.74l40,32a12,12,0,0,1,0,18.74l-40,32a12,12,0,0,1-15-18.74ZM144,172h32a12,12,0,0,0,0-24H144a12,12,0,0,0,0,24ZM236,56V200a20,20,0,0,1-20,20H40a20,20,0,0,1-20-20V56A20,20,0,0,1,40,36H216A20,20,0,0,1,236,56Zm-24,4H44V196H212Z"/></svg>
